#define _width 128
#define _height 64
static char _bits[] = {
 0xff,0xff,0xff,0xff,0xff,0xff,0xff,0xff,0xff,0xff,0xff,0xff,0xff,0xff,0xff,
 0xff,0xff,0xff,0xff,0xff,0xff,0xff,0xff,0xff,0xff,0xff,0xff,0xff,0xff,0xff,
 0xff,0xff,0xff,0xff,0xff,0xff,0xff,0xff,0xff,0xff,0xff,0xff,0xff,0xff,0xff,
 0xff,0xff,0xff,0xff,0xff,0xff,0xff,0xfc,0xff,0xff,0xff,0xff,0xff,0xff,0x1f,
 0xff,0xff,0xff,0xff,0xff,0xff,0xff,0xff,0xc3,0xff,0xff,0xff,0xff,0xff,0xff,
 0xe0,0xff,0xdf,0xfd,0xff,0xff,0xff,0xff,0xff,0x3f,0xfc,0xff,0xff,0xff,0xff,
 0x03,0xff,0xff,0xbf,0xfd,0xff,0xff,0xff,0xff,0xff,0xff,0xc3,0xff,0xff,0xff,
 0x1f,0xfc,0xff,0xff,0xbf,0xfb,0xff,0xff,0xff,0xff,0xff,0xff,0x3f,0xfc,0xff,
 0xff,0xe3,0xff,0xff,0xff,0x7f,0xfb,0xff,0xff,0xff,0xff,0xff,0x1f,0xff,0xe3,
 0xff,0xff,0xff,0xff,0xf8,0xff,0x7f,0xf7,0xff,0xff,0xff,0xff,0xff,0x03,0xfc,
 0xff,0xff,0xff,0xff,0x3f,0xc0,0xff,0xff,0xf6,0xff,0xff,0xff,0xff,0xff,0x01,
 0xf8,0xff,0xff,0xff,0xff,0x1f,0x80,0xff,0x7f,0xef,0xff,0xff,0xff,0xff,0x7f,
 0x00,0xe0,0xff,0xff,0xff,0xff,0x07,0x00,0xfe,0xbf,0xef,0xff,0xff,0xff,0xff,
 0x3f,0x00,0xc0,0xff,0xff,0xff,0xff,0x03,0x00,0xfc,0xdf,0xdf,0xff,0xff,0xff,
 0xff,0x3f,0x00,0x80,0xff,0xff,0xff,0xff,0x01,0x00,0xfc,0xef,0xbf,0xff,0xff,
 0xff,0xff,0x1f,0x00,0x80,0xff,0xff,0xff,0xff,0x01,0x00,0xf8,0xff,0x7c,0xff,
 0xff,0xff,0xff,0x1f,0x00,0x00,0xff,0xff,0xff,0xff,0x00,0x00,0xf8,0x7f,0xf3,
 0xff,0xff,0xff,0xff,0x0f,0x00,0x00,0xff,0xff,0xff,0xff,0x00,0x00,0xf0,0x7f,
 0xcf,0xff,0xff,0xff,0xff,0x0f,0x00,0x00,0xff,0xff,0xff,0xff,0x00,0x00,0xf0,
 0xbf,0xbf,0xff,0xff,0xff,0xff,0x0f,0x00,0x00,0xff,0xff,0xff,0xff,0x00,0x00,
 0xf0,0xdf,0xff,0xff,0xff,0xff,0xff,0x0f,0x00,0x00,0xfe,0xff,0xff,0x7f,0x00,
 0x00,0xf0,0xff,0xff,0xff,0xff,0xff,0xff,0x0f,0x00,0x00,0xfe,0xff,0xff,0x7f,
 0x00,0x00,0xf0,0xff,0xff,0xff,0xff,0xff,0xff,0x0f,0x00,0x00,0xfe,0xff,0xff,
 0x7f,0x00,0x00,0xf0,0xff,0xff,0xff,0xff,0xff,0xff,0x0f,0x00,0x00,0xfe,0xff,
 0xff,0x7f,0x00,0x00,0xf0,0xff,0xff,0xff,0xff,0xff,0xff,0x0f,0x00,0x00,0xfe,
 0xff,0xff,0x7f,0x00,0x00,0xf0,0xff,0xff,0xff,0xff,0xff,0xff,0x0f,0x00,0x00,
 0xfe,0xff,0xff,0x7f,0x00,0x00,0xf0,0xff,0xff,0xff,0xff,0xff,0xff,0x0f,0x00,
 0x00,0xff,0xff,0xff,0xff,0x00,0x00,0xf0,0xff,0xff,0xff,0xff,0xff,0xff,0x0f,
 0x00,0x00,0xff,0xff,0xff,0xff,0x00,0x00,0xf0,0xff,0xff,0xff,0xff,0xff,0xff,
 0x0f,0x00,0x00,0xff,0xff,0xff,0xff,0x00,0x00,0xf0,0xff,0xff,0xff,0xff,0xff,
 0xff,0x0f,0x00,0x00,0xff,0xff,0xff,0xff,0x00,0x00,0xf0,0xff,0xff,0xff,0xff,
 0xff,0xff,0x1f,0x00,0x00,0xff,0xff,0xff,0xff,0x00,0x00,0xf8,0xff,0xff,0xff,
 0xff,0xff,0xff,0x1f,0x00,0x80,0xff,0xff,0xff,0xff,0x01,0x00,0xf8,0xff,0xff,
 0xff,0xff,0xff,0xff,0x3f,0x00,0x80,0xff,0xff,0xff,0xff,0x01,0x00,0xfc,0xff,
 0xff,0xff,0xff,0xff,0xff,0x3f,0x00,0xc0,0xff,0xff,0xff,0xff,0x03,0x00,0xfc,
 0xff,0xff,0xff,0xff,0xff,0xff,0x7f,0x00,0xe0,0xff,0xff,0xff,0xff,0x07,0x00,
 0xfe,0xff,0xff,0xff,0xff,0xff,0xff,0xff,0x00,0xf0,0xff,0xff,0xff,0xff,0x0f,
 0x00,0xff,0xff,0xff,0xff,0xff,0xff,0xff,0xff,0x03,0xfc,0xff,0xff,0xff,0xff,
 0x3f,0xc0,0xff,0xff,0xff,0xff,0xff,0xff,0xff,0xff,0x07,0xfe,0xff,0xff,0xff,
 0xff,0x7f,0xe0,0xff,0xff,0xff,0xff,0xff,0xff,0xff,0xff,0x9f,0xff,0xff,0xff,
 0xff,0xff,0xff,0xf9,0xff,0xff,0xff,0xff,0xff,0xff,0xff,0xff,0xff,0xff,0xff,
 0xff,0xff,0xff,0xff,0xff,0xff,0xff,0xff,0xff,0xff,0xff,0xff,0xff,0xff,0xff,
 0xff,0xff,0xff,0xff,0xff,0xff,0xff,0xff,0xff,0xff,0xff,0xff,0xff,0xff,0xff,
 0xff,0xff,0xff,0xff,0xff,0xff,0xff,0xff,0xff,0xff,0xff,0xff,0xff,0xff,0xff,
 0xff,0xff,0xff,0xff,0xff,0xff,0xff,0xff,0xff,0xff,0xff,0xff,0xff,0xff,0xff,
 0xff,0xff,0xff,0xff,0x3f,0x80,0xff,0xff,0xff,0xff,0xff,0xff,0xff,0xff,0xff,
 0xff,0xff,0xff,0xff,0x3f,0xc0,0x7f,0xc0,0xff,0xff,0xff,0xff,0xff,0xff,0xff,
 0xff,0xff,0xff,0xff,0xff,0xc3,0xff,0xff,0x3f,0xfc,0xff,0xff,0xff,0xff,0xff,
 0xff,0xff,0xff,0xff,0xff,0x3f,0xfc,0xff,0xff,0xff,0xe3,0xff,0xff,0xff,0xff,
 0xff,0xff,0xff,0xff,0xff,0xff,0xcf,0xff,0xff,0xff,0xff,0x9f,0xff,0xff,0xff,
 0xff,0xff,0xff,0xff,0xff,0xff,0xff,0xf1,0xff,0xff,0xff,0xff,0x7f,0xfe,0xff,
 0xff,0xff,0xff,0xff,0xff,0xff,0xff,0x7f,0xfe,0xff,0xff,0xff,0xff,0xff,0xf9,
 0xff,0xff,0xff,0xff,0xff,0xff,0xff,0xff,0x9f,0xff,0xff,0xff,0xff,0xff,0xff,
 0xe7,0xff,0xff,0xff,0xff,0xff,0xff,0xff,0xff,0xe7,0xff,0xff,0xff,0xff,0xff,
 0xff,0x9f,0xff,0xff,0xff,0xff,0xff,0xff,0xff,0xff,0xf9,0xff,0xff,0xff,0xff,
 0xff,0xff,0x7f,0xfe,0xff,0xff,0xff,0xff,0xff,0xff,0x7f,0xfe,0xff,0xff,0xff,
 0xff,0xff,0xff,0xff,0xf9,0xff,0xff,0xff,0xff,0xff,0xff,0x9f,0xff,0xff,0xff,
 0xff,0xff,0xff,0xff,0xff,0xe7,0xff,0xff,0xff,0xff,0xff,0xff,0xe7,0xff,0xff,
 0xff,0xff,0xff,0xff,0xff,0xff,0xdf,0xff,0xff,0xff,0xff,0xff,0xff,0xff,0xff,
 0xff,0xff,0xff,0xff,0xff,0xff,0xff,0xbf,0xff,0xff,0xff,0xff,0xff,0xff,0xff,
 0xff,0xff,0xff,0xff,0xff,0xff,0xff,0xff,0xff,0xff,0xff,0xff,0xff,0xff,0xff,
 0xff,0xff,0xff,0xff,0xff,0xff,0xff,0xff,0xff,0xff,0xff,0xff,0xff,0xff,0xff,
 0xff,0xff,0xff,0xff,0xff,0xff,0xff,0xff,0xff,0xff,0xff,0xff,0xff,0xff,0xff,
 0xff,0xff,0xff,0xff,0xff,0xff,0xff,0xff,0xff,0xff,0xff,0xff,0xff,0xff,0xff,
 0xff,0xff,0xff,0xff,0xff,0xff,0xff,0xff,0xff,0xff,0xff,0xff,0xff,0xff,0xff,
 0xff,0xff,0xff,0xff,0xff,0xff,0xff,0xff,0xff,0xff,0xff,0xff,0xff,0xff,0xff,
 0xff,0xff,0xff,0xff,0xff,0xff,0xff,0xff,0xff,0xff,0xff,0xff,0xff,0xff,0xff,
 0xff,0xff,0xff,0xff,0xff,0xff,0xff,0xff,0xff,0xff,0xff,0xff,0xff,0xff,0xff,
 0xff,0xff,0xff,0xff };
