#define _width 128
#define _height 64
static char _bits[] = {
 0xff,0xff,0xff,0xff,0xff,0xff,0xff,0xff,0xff,0xff,0xff,0xff,0xff,0xff,0xff,
 0xff,0xff,0xff,0xff,0xff,0xff,0xff,0xff,0xff,0xff,0xff,0xff,0xff,0xff,0xff,
 0xff,0xff,0xff,0xff,0xff,0xff,0xff,0xff,0xff,0xff,0xff,0xff,0xff,0xff,0xff,
 0xff,0xff,0xff,0xff,0xff,0xff,0xff,0xff,0xff,0xff,0xff,0xff,0xff,0xff,0xff,
 0xff,0xff,0xff,0xff,0xff,0x1f,0xc0,0xff,0xff,0xff,0xff,0xff,0x03,0xf8,0xff,
 0xff,0xff,0xff,0xff,0xff,0xff,0xe1,0x3f,0xfc,0xff,0xff,0xff,0x3f,0xfc,0x87,
 0xff,0xff,0xff,0xff,0xff,0xff,0x3f,0xfe,0xff,0xe1,0xff,0xff,0xff,0x87,0xff,
 0x7f,0xfc,0xff,0xff,0xff,0xff,0xff,0x9f,0xff,0xff,0x0f,0xff,0xff,0xff,0xf0,
 0xff,0xff,0xf9,0xff,0xff,0xff,0xff,0xff,0xff,0xff,0xf1,0x7f,0xf8,0xff,0x1f,
 0xfe,0x8f,0xff,0xff,0xff,0x7f,0xf8,0xff,0xff,0xff,0x3f,0xc0,0xff,0xfb,0xff,
 0xdf,0xff,0x03,0xfc,0xff,0xff,0x7f,0xf8,0xff,0xff,0xff,0x1f,0x80,0xff,0xf3,
 0xff,0xcf,0xff,0x01,0xf8,0xff,0xff,0x9f,0xe7,0xff,0xff,0xff,0x07,0x00,0xfe,
 0xe7,0xff,0xe7,0x7f,0x00,0xe0,0xff,0xff,0x9f,0xe7,0xff,0xff,0xff,0x03,0x00,
 0xfc,0xff,0xff,0xff,0x3f,0x00,0xc0,0xff,0xff,0x9f,0xe7,0xff,0xff,0xff,0x03,
 0x00,0xf8,0xff,0xff,0xff,0x1f,0x00,0xc0,0xff,0xff,0x9f,0xe7,0xff,0xff,0xff,
 0x01,0x00,0xf8,0xff,0xff,0xff,0x1f,0x00,0x80,0xff,0xff,0x9f,0xe7,0xff,0xff,
 0xff,0x01,0x00,0xf0,0xff,0xff,0xff,0x0f,0x00,0x80,0xff,0xff,0x9f,0xe7,0xff,
 0xff,0xff,0x00,0x00,0xf0,0xff,0xff,0xff,0x0f,0x00,0x00,0xff,0xff,0x9f,0xe7,
 0xff,0xff,0xff,0x00,0x00,0xf0,0xff,0xff,0xff,0x0f,0x00,0x00,0xff,0xff,0x9f,
 0xe7,0xff,0xff,0xff,0x00,0x00,0xf0,0xff,0xff,0xff,0x0f,0x00,0x00,0xff,0xff,
 0x9f,0xe7,0xff,0xff,0xff,0x00,0x00,0xe0,0xff,0xff,0xff,0x07,0x00,0x00,0xff,
 0xff,0x9f,0xe7,0xff,0xff,0xff,0x00,0x00,0xe0,0xff,0xff,0xff,0x07,0x00,0x00,
 0xff,0xff,0x9f,0xe7,0xff,0xff,0xff,0x00,0x00,0xe0,0xff,0xff,0xff,0x07,0x00,
 0x00,0xff,0xff,0x9f,0xe7,0xff,0xff,0xff,0x00,0x00,0xe0,0xff,0xff,0xff,0x07,
 0x00,0x00,0xff,0xff,0x81,0x07,0xfe,0xff,0xff,0x00,0x00,0xe0,0xff,0xff,0xff,
 0x07,0x00,0x00,0xff,0xff,0x81,0x07,0xfe,0xff,0xff,0x00,0x00,0xe0,0xff,0xff,
 0xff,0x07,0x00,0x00,0xff,0x7f,0x9e,0xe7,0xe1,0xff,0xff,0x00,0x00,0xf0,0xff,
 0xff,0xff,0x0f,0x00,0x00,0xff,0x7f,0x9e,0xe7,0xe1,0xff,0xff,0x00,0x00,0xf0,
 0xff,0xff,0xff,0x0f,0x00,0x00,0x7f,0x60,0x9e,0xe7,0x99,0xff,0xff,0x00,0x00,
 0xf0,0xff,0xff,0xff,0x0f,0x00,0x00,0x7f,0x60,0x9e,0xe7,0x99,0xff,0xff,0x00,
 0x00,0xf0,0xff,0xff,0xff,0x0f,0x00,0x00,0x7f,0x1e,0xfe,0xff,0x79,0xfe,0xff,
 0x01,0x00,0xf0,0xff,0xff,0xff,0x0f,0x00,0x80,0x7f,0x1e,0xfe,0xff,0x79,0xfe,
 0xff,0x01,0x00,0xf8,0xff,0xff,0xff,0x1f,0x00,0x80,0x7f,0x7e,0xfe,0xff,0x79,
 0xfe,0xff,0x03,0x00,0xf8,0xff,0xff,0xff,0x1f,0x00,0xc0,0x7f,0x7e,0xfe,0xff,
 0x79,0xfe,0xff,0x03,0x00,0xfc,0xff,0xff,0xff,0x3f,0x00,0xc0,0xff,0x79,0xfe,
 0xff,0x7f,0xfe,0xff,0x07,0x00,0xfe,0xff,0xff,0xff,0x7f,0x00,0xe0,0xff,0x79,
 0xfe,0xff,0x7f,0xfe,0xff,0x0f,0x00,0xff,0xff,0xff,0xff,0xff,0x00,0xf0,0xff,
 0x67,0xfe,0xff,0x7f,0xfe,0xff,0x3f,0xc0,0xff,0xff,0xff,0xff,0xff,0x03,0xfc,
 0xff,0x67,0xfe,0xff,0x7f,0xfe,0xff,0x7f,0xe0,0xff,0xff,0xff,0xff,0xff,0x07,
 0xfe,0xff,0xe7,0xff,0xff,0x7f,0xfe,0xff,0xff,0xf9,0xff,0xff,0xff,0xff,0xff,
 0x9f,0xff,0xff,0xe7,0xff,0xff,0x7f,0xfe,0xff,0xff,0xff,0xff,0xff,0xff,0xff,
 0xff,0xff,0xff,0xff,0x9f,0xff,0xff,0x9f,0xff,0xff,0xff,0xff,0xff,0xff,0xff,
 0xff,0xff,0xff,0xff,0xff,0x9f,0xff,0xff,0x9f,0xff,0xff,0xff,0xff,0xff,0xff,
 0xff,0xff,0xff,0xff,0xff,0xff,0x9f,0xff,0xff,0x9f,0xff,0xff,0xff,0xff,0xff,
 0xff,0xff,0xff,0xff,0xff,0xff,0xff,0x9f,0xff,0xff,0x9f,0xff,0xff,0xff,0xff,
 0xff,0xff,0xff,0xff,0xff,0xff,0xff,0xff,0x7f,0xfe,0xff,0x9f,0xff,0xff,0xff,
 0xff,0xff,0xff,0xff,0xff,0xff,0xff,0xff,0xff,0x7f,0xfe,0xff,0x9f,0xff,0xff,
 0xff,0xfb,0xff,0xff,0xff,0xff,0xff,0xdf,0xff,0xff,0x7f,0xfe,0xff,0xe7,0xff,
 0xff,0xff,0xfb,0xff,0xff,0xff,0xff,0xff,0xdf,0xff,0xff,0x7f,0xfe,0xff,0xe7,
 0xff,0xff,0xff,0xf7,0xff,0xff,0xff,0xff,0xff,0xef,0xff,0xff,0xff,0xf9,0xff,
 0xe7,0xff,0xff,0xff,0xc7,0xff,0xff,0xff,0xff,0xff,0xe3,0xff,0xff,0xff,0xf9,
 0xff,0xe7,0xff,0xff,0xff,0x1f,0x00,0x00,0x00,0x00,0x00,0xf8,0xff,0xff,0xff,
 0x01,0x00,0xe0,0xff,0xff,0xff,0xff,0xff,0xff,0xff,0xff,0xff,0xff,0xff,0xff,
 0xff,0x01,0x00,0xe0,0xff,0xff,0xff,0xff,0xff,0xff,0xff,0xff,0xff,0xff,0xff,
 0xff,0xff,0xf9,0xff,0xe7,0xff,0xff,0xff,0xff,0xff,0xff,0xff,0xff,0xff,0xff,
 0xff,0xff,0xff,0xf9,0xff,0xe7,0xff,0xff,0xff,0xff,0xff,0xff,0xff,0xff,0xff,
 0xff,0xff,0xff,0xff,0x07,0x00,0xf8,0xff,0xff,0xff,0xff,0xff,0xff,0xff,0xff,
 0xff,0xff,0xff,0xff,0xff,0x07,0x00,0xf8,0xff,0xff,0xff,0xff,0xff,0xff,0xff,
 0xff,0xff,0xff,0xff,0xff,0xff,0xff,0xff,0xff,0xff,0xff,0xff,0xff,0xff,0xff,
 0xff,0xff,0xff,0xff,0xff,0xff,0xff,0xff,0xff,0xff,0xff,0xff,0xff,0xff,0xff,
 0xff,0xff,0xff,0xff,0xff,0xff,0xff,0xff,0xff,0xff,0xff,0xff,0xff,0xff,0xff,
 0xff,0xff,0xff,0xff,0xff,0xff,0xff,0xff,0xff,0xff,0xff,0xff,0xff,0xff,0xff,
 0xff,0xff,0xff,0xff,0xff,0xff,0xff,0xff,0xff,0xff,0xff,0xff,0xff,0xff,0xff,
 0xff,0xff,0xff,0xff,0xff,0xff,0xff,0xff,0xff,0xff,0xff,0xff,0xff,0xff,0xff,
 0xff,0xff,0xff,0xff,0xff,0xff,0xff,0xff,0xff,0xff,0xff,0xff,0xff,0xff,0xff,
 0xff,0xff,0xff,0xff,0xff,0xff,0xff,0xff,0xff,0xff,0xff,0xff,0xff,0xff,0xff,
 0xff,0xff,0xff,0xff,0xff,0xff,0xff,0xff,0xff,0xff,0xff,0xff,0xff,0xff,0xff,
 0xff,0xff,0xff,0xff,0xff,0xff,0xff,0xff,0xff,0xff,0xff,0xff,0xff,0xff,0xff,
 0xff,0xff,0xff,0xff };
